icons/address.svg

<svg width="48" height="48" viewBox="0 0 28 28" fill="none" xmlns="http://www.w3.org/2000/svg">
<path d="M26.768 11.032L16.968 1.23201C16.1668 0.471804 15.1045 0.0480042 14 0.0480042C12.8955 0.0480042 11.8332 0.471804 11.032 1.23201L1.232 11.032C0.445475 11.8195 0.00369263 12.887 0.00369263 14C0.00369263 15.113 0.445475 16.1805 1.232 16.968L11.032 26.768C11.8195 27.5545 12.887 27.9963 14 27.9963C15.113 27.9963 16.1805 27.5545 16.968 26.768L26.768 16.968C27.5545 16.1805 27.9963 15.113 27.9963 14C27.9963 12.887 27.5545 11.8195 26.768 11.032ZM24.794 14.994L14.994 24.794C14.8638 24.9252 14.709 25.0294 14.5384 25.1005C14.3678 25.1715 14.1848 25.2081 14 25.2081C13.8152 25.2081 13.6322 25.1715 13.4616 25.1005C13.291 25.0294 13.1361 24.9252 13.006 24.794L3.206 14.994C3.07478 14.8639 2.97063 14.709 2.89955 14.5384C2.82847 14.3678 2.79188 14.1848 2.79188 14C2.79188 13.8152 2.82847 13.6322 2.89955 13.4616C2.97063 13.291 3.07478 13.1362 3.206 13.006L13.006 3.20601C13.1361 3.07479 13.291 2.97064 13.4616 2.89957C13.6322 2.82849 13.8152 2.7919 14 2.7919C14.1848 2.7919 14.3678 2.82849 14.5384 2.89957C14.709 2.97064 14.8638 3.07479 14.994 3.20601L24.794 13.006C24.9252 13.1362 25.0294 13.291 25.1004 13.4616C25.1715 13.6322 25.2081 13.8152 25.2081 14C25.2081 14.1848 25.1715 14.3678 25.1004 14.5384C25.0294 14.709 24.9252 14.8639 24.794 14.994ZM17.094 10.206C16.8304 9.94239 16.4728 9.79429 16.1 9.79429C15.7272 9.79429 15.3696 9.94239 15.106 10.206C14.8424 10.4696 14.6943 10.8272 14.6943 11.2C14.6943 11.5728 14.8424 11.9304 15.106 12.194L15.526 12.6H10.5C10.1287 12.6 9.7726 12.7475 9.51005 13.0101C9.2475 13.2726 9.1 13.6287 9.1 14V16.8C9.1 17.1713 9.2475 17.5274 9.51005 17.79C9.7726 18.0525 10.1287 18.2 10.5 18.2C10.8713 18.2 11.2274 18.0525 11.4899 17.79C11.7525 17.5274 11.9 17.1713 11.9 16.8V15.4H15.526L15.106 15.806C14.9748 15.9362 14.8706 16.091 14.7996 16.2616C14.7285 16.4322 14.6919 16.6152 14.6919 16.8C14.6919 16.9848 14.7285 17.1678 14.7996 17.3384C14.8706 17.509 14.9748 17.6639 15.106 17.794C15.2361 17.9252 15.391 18.0294 15.5616 18.1005C15.7322 18.1715 15.9152 18.2081 16.1 18.2081C16.2848 18.2081 16.4678 18.1715 16.6384 18.1005C16.809 18.0294 16.9639 17.9252 17.094 17.794L19.894 14.994C20.0252 14.8639 20.1294 14.709 20.2004 14.5384C20.2715 14.3678 20.3081 14.1848 20.3081 14C20.3081 13.8152 20.2715 13.6322 20.2004 13.4616C20.1294 13.291 20.0252 13.1362 19.894 13.006L17.094 10.206Z" fill="white"/>
</svg>

<svg width="48" height="48" viewBox="0 0 28 28" fill="none" xmlns="http://www.w3.org/2000/svg"><path d="m26.768 11.032-9.8-9.8a4.312 4.312 0 0 0-5.936 0l-9.8 9.8a4.2 4.2 0 0 0 0 5.936l9.8 9.8a4.2 4.2 0 0 0 5.936 0l9.8-9.8a4.2 4.2 0 0 0 0-5.936Zm-1.974 3.962-9.8 9.8a1.401 1.401 0 0 1-1.988 0l-9.8-9.8a1.4 1.4 0 0 1 0-1.988l9.8-9.8a1.4 1.4 0 0 1 1.988 0l9.8 9.8a1.4 1.4 0 0 1 0 1.988Zm-7.7-4.788a1.406 1.406 0 0 0-1.988 1.988l.42.406H10.5A1.4 1.4 0 0 0 9.1 14v2.8a1.4 1.4 0 0 0 2.8 0v-1.4h3.626l-.42.406a1.4 1.4 0 0 0 0 1.988 1.4 1.4 0 0 0 1.988 0l2.8-2.8a1.399 1.399 0 0 0 0-1.988l-2.8-2.8Z" fill="#fff"/></svg>
